X: 850
T: McDermott's hornpipe
C: anon.
O: Ireland
B: Francis O'Neill: "The Dance Music of Ireland" (1907) no. 850
R: Hornpipe
Z: Transcribed by Frank Nordberg - http://www.musicaviva.com
F: http://www.musicaviva.com/abc/tunes/ireland/oneill-1001/oneill-1001-085
0.abc
M: 2/4
L: 1/16
K: D
D2|d>f (3edc d2B2|(3ABA G>A FGEF|E>d (3ddd c>e (3eee|d>fe>d cABc|
d>f (3edc d2B2|(3ABA G>A F>GEF|DFAF GABd|c>e (3ABc d2::(de)|\
f2fd fgaf|g2gf gbag|
f2fd fgab|agfe dcBA|f2fd fgaf|g2gf gbag|\
fad>f (3efe c>f|dfed cABc:|
W:
W:
W: From Musica Viva - http://www.musicaviva.com
W: the Internet center for free sheet music downloads.


